X:1
T:Title
%%score 1 { 2 | 3 }
L:1/8
Q:1/4=108
M:4/4
K:F
V:1 treble nm="Grand Piano, Staff"
V:2 bass nm="Choir Pad, Look to the Lamb of God"
V:3 bass 
V:1
 [CA]2 [CA]>[DB] [CA]2 C2 | [CF]>[CG] [FA]>[FB] [Fc]4 | [Fc]2 [Fc]>[FA] F2 [FA]2 | [EG]6 z2 | %4
w: By~James~Milton~Black * * * *||||
 [CA]2 [CA]>[DB] [CA]2 C2 | [CF]>[CG] [FA]>[FB] [Fc]4 | [Ec]2 [Ec]>[EB] [EA]2 [CG]2 | [CF]6 z2 | %8
w: ||||
 [Fc]2 [Fc]>[Fd] [Fc]2 [CF]2 | [CE]6 z2 | [EG]2 [GB]>[Ac] [Be]2 [Bd]2 | [Ac]6 z2 | %12
w: ||||
 [FA]2 [FA]>[EB] [Fc]2 [FA]2 | [FB]2 [Fd]>[Fd] [Fd]2 [FB]2 | [FA]2 [Fc]>[FB] [EA]2 [EG]2 | [CF]8 |] %16
w: ||||
V:2
 F,2 F,>F, F,2 A,2 | A,>B, C>G, A,4 | A,2[K:treble] A,>C C2 C2 | C6 z2 | F,2 F,>F, F,2 A,2 | %5
 A,>B, C>G, A,4 | G,2 G,>C C2 B,2 | A,6 z2 | A,2 A,>B, A,2 A,2 | B,2 B,2 B,2 z2 | C2 C>C C2 E2 | %11
 F2 F2 F2 z2 | C2 C>C C2 C2 | D2[K:bass] B,>B, B,2 D2 | C2 A,>D C2 B,2 | A,8 |] %16
V:3
 z4 z2 F,2 | F,>F, F,>F, F,4 | F,2 F,>F, A,2 F,2 | C,6 z2 | z4 z2 F,2 | F,>F, F,>F, F,4 | %6
 C,2 C,>C, C,2 C,2 | F,6 z2 | F,2 F,>F, F,2 F,2 | G,2 G,2 C,2 z2 | C,2 C,>C, C,2 C,2 | %11
 F,2 C,2 F,2 z2 | F,2 F,>G, A,2 F,2 | B,,2 B,,>B,, B,,2 B,,2 | C,2 C,>C, C,2 C,2 | F,8 |] %16

